X: 37694
T: So Sweet Her Look So Soft Her Air
R: jig
M: 6/8
K: Gmajor
|:E|GAB c2B|ABA ^d2e|cAG FGF|E3E2F|
GAB e2d|FGA d2c|BAG A2F|G3G2:|
|:A|Bcd cBA|B2gf2^d|e2c efg|B2e gfe|
cBA a2f|^d^cB e2B|GFE FAG|E3E2||

